X:71
T:Flora, the flower of the west - Baker
%%VWML:SBG-1-2-290-0
F:http://www.vwml.org/record/SBG/1/2/290
Z:Original Sibelius transcriptions by M. & S. Graebe
M:2/4
I:linebreak $
K:G
V:1 treble nm="P1"
V:1
 D2 | DBAB | GFED | B,CDD | D3 D | DBAB | GFED | B,CDD | D3 A |$ BAGB | dded | BAGA | B3 D | GBAB | %14
 GFED | B,CDD | D6 | %17
T:Flora, the flower of the west - Olver
F:http://www.vwml.org/record/SBG/1/2/209
Z:Original Sibelius transcriptions by M. & S. Graebe
M:2/4
I:linebreak $
K:G
V:1 treble nm="P1"
V:1
 z D | D B A B | A-G E D | B, C D D | D3 D | D B A B | G- F E D |$ B, C D D | D3 A | B A G B | %10
 d d e d | B A G A | B3 D | D B A B |$ c2 B A | G F B A | G3 |"^variant" D | D B A B | G F E D | %20
 B, C D D | D3 x | %22
T:Flora, the flower of the west - Fone & Gerrard
F:http://www.vwml.org/record/SBG/1/2/209
Z:Original Sibelius transcriptions by M. & S. Graebe
M:4/4
I:linebreak $
K:F
V:1 treble nm="P1"
V:1
 F | F G A d | ^c- d A3/2 G/ | F G D F | F3 F | F G A d |$ ^c- d A3/2 G/ | F G D F | G3 c | %9
 c c A c | f f d3/2 c/ |$ B B d c | d2- c3/2 F/ | F G A d | ^c- d A3/2 G/ | F G D F | F3 x | %17

